assets/svg/eye.svg

<?xml version="1.0" encoding="UTF-8"?>
<svg width="1000px" height="1000px" viewBox="0 0 1000 1000" version="1.1" xmlns="http://www.w3.org/2000/svg" xmlns:xlink="http://www.w3.org/1999/xlink">
    <!-- Generator: sketchtool 52.4 (67378) - http://www.bohemiancoding.com/sketch -->
    <title>eye</title>
    <desc>Created with sketchtool.</desc>
    <g id="新版图标" stroke="none" stroke-width="1" fill="none" fill-rule="evenodd">
        <g id="eye" fill="#323233">
            <g id="圆角-明文">
                <path d="M500.003946,166.666667 C200.04287,166.666667 55.5555556,457.981013 55.5555556,472.222222 C55.5555556,486.478933 196.183962,777.777778 500.003946,777.777778 C803.817616,777.777778 944.444444,486.478933 944.444444,472.222222 C944.444444,457.981013 799.95713,166.666667 500.003946,166.666667 Z M500.003514,638.888889 C407.954052,638.888889 333.333333,564.26817 333.333333,472.220114 C333.333333,380.170651 407.954052,305.555556 500.003514,305.555556 C592.045948,305.555556 666.666667,380.170651 666.666667,472.220114 C666.666667,564.26817 592.045948,638.888889 500.003514,638.888889 Z M500.003514,388.888889 C453.971875,388.888889 416.666667,426.19972 416.666667,472.218708 C416.666667,518.248941 453.971875,555.55415 500.003514,555.55415 C546.022502,555.55415 583.333333,518.248941 583.333333,472.218708 C583.333333,426.19972 546.022502,388.888889 500.003514,388.888889 Z" id="Fill-1"></path>
            </g>
        </g>
    </g>
</svg>

<svg width="1000" height="1000" xmlns="http://www.w3.org/2000/svg"><path d="M500.004 166.667c-299.961 0-444.448 291.314-444.448 305.555 0 14.257 140.628 305.556 444.448 305.556 303.814 0 444.44-291.3 444.44-305.556 0-14.241-144.487-305.555-444.44-305.555zm0 472.222c-92.05 0-166.67-74.62-166.67-166.669 0-92.05 74.62-166.664 166.67-166.664 92.042 0 166.663 74.615 166.663 166.664 0 92.048-74.621 166.669-166.663 166.669zm0-250c-46.032 0-83.337 37.31-83.337 83.33 0 46.03 37.305 83.335 83.337 83.335 46.019 0 83.33-37.305 83.33-83.335 0-46.02-37.311-83.33-83.33-83.33z" fill="#323233" fill-rule="evenodd"/></svg>
